X:10
T: O'Neill's March
M: 2/4
L: 1/8
R: polka
K: Emin
|:Bg fa|eg f/e/d/B/|eg fa|eg f/e/d:|
|:ee f/e/d/B/|ee f/e/d/B/:|
|:A>B G>B|Ae d/B/A|A>B G>B|Ae z2:|
